communes/2079.svg

<?xml version="1.0" encoding="UTF-8" standalone="no"?>
<svg
   xmlns:dc="http://purl.org/dc/elements/1.1/"
   xmlns:cc="http://creativecommons.org/ns#"
   xmlns:rdf="http://www.w3.org/1999/02/22-rdf-syntax-ns#"
   xmlns:svg="http://www.w3.org/2000/svg"
   xmlns="http://www.w3.org/2000/svg"
   xmlns:xlink="http://www.w3.org/1999/xlink"
   xmlns:sodipodi="http://sodipodi.sourceforge.net/DTD/sodipodi-0.dtd"
   xmlns:inkscape="http://www.inkscape.org/namespaces/inkscape"
   version="1.0"
   width="603"
   height="763"
   id="svg20"
   sodipodi:docname="2079.svg">
  <sodipodi:namedview
     pagecolor="#ffffff"
     bordercolor="#666666"
     borderopacity="1"
     objecttolerance="10"
     gridtolerance="10"
     guidetolerance="10"
     inkscape:pageopacity="0"
     inkscape:pageshadow="2"
     inkscape:window-width="640"
     inkscape:window-height="480"
     id="namedview64" />
  <desc
     id="desc22">Coat of Arms of Canton of Freiburg (Fribourg)</desc>
  <metadata
     id="metadata31">
    <rdf:RDF>
      <cc:Work
         rdf:about="">
        <dc:format>image/svg+xml</dc:format>
        <dc:type
           rdf:resource="http://purl.org/dc/dcmitype/StillImage" />
        <dc:date>07-AUG-2006</dc:date>
        <dc:creator>
          <cc:Agent>
            <dc:title>Jérôme BLUM (wagner51)</dc:title>
          </cc:Agent>
        </dc:creator>
        <cc:license
           rdf:resource="http://creativecommons.org/licenses/GPL/2.0/" />
        <dc:coverage />
        <dc:description>Gabarit pour le Projet:Blasons de WIkipédia</dc:description>
        <dc:subject>
          <rdf:Bag>
            <rdf:li>blason suisse modèle gabarit projet blasons</rdf:li>
          </rdf:Bag>
        </dc:subject>
        <dc:language>fr</dc:language>
        <dc:title />
      </cc:Work>
      <cc:License
         rdf:about="http://creativecommons.org/licenses/GPL/2.0/">
        <cc:permits
           rdf:resource="http://web.resource.org/cc/Reproduction" />
        <cc:permits
           rdf:resource="http://web.resource.org/cc/Distribution" />
        <cc:requires
           rdf:resource="http://web.resource.org/cc/Notice" />
        <cc:permits
           rdf:resource="http://web.resource.org/cc/DerivativeWorks" />
        <cc:requires
           rdf:resource="http://web.resource.org/cc/ShareAlike" />
        <cc:requires
           rdf:resource="http://web.resource.org/cc/SourceCode" />
      </cc:License>
    </rdf:RDF>
  </metadata>
  <defs
     id="defs29">
    <linearGradient
       id="linearGradient2893">
      <stop
         id="stop2895"
         style="stop-color:#ffffff;stop-opacity:0.3137255"
         offset="0" />
      <stop
         id="stop2897"
         style="stop-color:#ffffff;stop-opacity:0.25098041"
         offset="0.19" />
      <stop
         id="stop2901"
         style="stop-color:#6b6b6b;stop-opacity:0.1254902"
         offset="0.60000002" />
      <stop
         id="stop2899"
         style="stop-color:#000000;stop-opacity:0.1254902"
         offset="1" />
    </linearGradient>
    <radialGradient
       cx="858.04236"
       cy="579.93323"
       r="300"
       fx="858.04236"
       fy="579.93323"
       id="radialGradient3236"
       xlink:href="#linearGradient2893"
       gradientUnits="userSpaceOnUse"
       gradientTransform="matrix(1.215027,0,0,1.266667,-839.1924,-490.4894)" />
  </defs>
  <g
     id="layer1"
     style="display:inline">
    <path
       d="m 1.5,1.49998 0,458.86792 C 1.5,626.6785 135.81456,761.5 301.49999,761.5 467.18543,761.5 601.5,626.6785 601.5,460.3679 l 0,-458.86792 -600,0 z"
       id="path1899"
       style="fill:#2b5df2;fill-opacity:1" />
    <g
       transform="matrix(1.0918978,0,0,1.1377338,0,-1)"
       id="layer3-1"
       style="display:inline">
      <g
         id="g5810">
        <path
           d="m 1.5,100.78125 481.9416,479.64206 c 42.26741,-51.70938 52.48482,-79.69752 62.1209,-126.39206 L 93.71875,2.1875 1.5,2.1875 z"
           id="path2855"
           style="fill:#ffffff;fill-opacity:1;fill-rule:evenodd;stroke:#000000;stroke-width:3;stroke-linecap:butt;stroke-linejoin:miter;stroke-miterlimit:4;stroke-opacity:1;stroke-dasharray:none" />
        <rect
           width="600"
           height="660"
           x="0"
           y="3.375078e-014"
           id="rect4923"
           style="fill:none;stroke:none" />
      </g>
    </g>
  </g>
  <g
     id="layer2"
     style="display:inline">
    <g
       transform="matrix(1.0474129,0,0,1,-9.455693,-12.402734)"
       id="g3280"
       style="display:inline">
      <g
         id="g3268">
        <g
           transform="matrix(0.27642319,0,0,0.4,3.9466105,-82.98461)"
           id="g10897"
           style="fill:#e20909;stroke:#000000;stroke-width:5;stroke-miterlimit:4;stroke-opacity:1;stroke-dasharray:none">
          <g
             id="g10823"
             style="fill:#e20909;stroke:#000000;stroke-width:5;stroke-miterlimit:4;stroke-opacity:1;stroke-dasharray:none">
            <path
               d="m 424.5,379.45868 0,193.80861 -266.68066,0 0,-193.80861"
               id="rect6400"
               style="fill:#e20909;fill-opacity:1;fill-rule:evenodd;stroke:#000000;stroke-width:5;stroke-linecap:square;stroke-linejoin:miter;stroke-miterlimit:4;stroke-opacity:1;stroke-dasharray:none;stroke-dashoffset:0" />
            <path
               d="m 258.26031,472.31218 c 0,0 20.77772,-18 33.41576,-18 12.63803,0 35.22458,18 35.22458,18 l 0,100.75 -68.64034,0 z"
               id="rect7281"
               style="fill:#e20909;fill-opacity:1;fill-rule:evenodd;stroke:#000000;stroke-width:5;stroke-linecap:square;stroke-linejoin:miter;stroke-miterlimit:4;stroke-opacity:1;stroke-dasharray:none;stroke-dashoffset:0" />
            <path
               d="M 158.90234,377.29939 284.5,275.68314 422.77616,377.29939"
               id="rect8157"
               style="fill:#e20909;fill-opacity:1;fill-rule:evenodd;stroke:#000000;stroke-width:5;stroke-linecap:square;stroke-linejoin:miter;stroke-miterlimit:4;stroke-opacity:1;stroke-dasharray:none;stroke-dashoffset:0" />
            <path
               d="m 157.63983,378.49573 264.8969,-0.9007 z"
               id="path9055"
               style="fill:#e20909;stroke:#000000;stroke-width:5;stroke-linecap:butt;stroke-linejoin:miter;stroke-miterlimit:4;stroke-opacity:1;stroke-dasharray:none" />
            <g
               transform="translate(22.5,12.08787)"
               id="g10813"
               style="fill:#e20909;stroke:#000000;stroke-width:5;stroke-miterlimit:4;stroke-opacity:1;stroke-dasharray:none" />
            <g
               transform="translate(-181.1,27.53003)"
               id="g10817"
               style="fill:#e20909;stroke:#000000;stroke-width:5;stroke-miterlimit:4;stroke-opacity:1;stroke-dasharray:none">
              <g
                 id="g1497"
                 style="fill:#e20909">
                <g
                   id="g2409"
                   style="fill:#e20909" />
              </g>
            </g>
          </g>
        </g>
      </g>
      <path
         d="m 84.4621,98.84522 0.25658,46.65771"
         id="path3102"
         style="fill:none;stroke:#000000;stroke-width:0.82986534px;stroke-linecap:butt;stroke-linejoin:miter;stroke-opacity:1" />
    </g>
    <g
       transform="matrix(1.0474129,0,0,1,212.3612,210.79178)"
       id="g3280-2"
       style="display:inline">
      <g
         id="g3268-3">
        <g
           transform="matrix(0.27642319,0,0,0.4,3.9466105,-82.98461)"
           id="g10897-2"
           style="fill:#e20909;stroke:#000000;stroke-width:5;stroke-miterlimit:4;stroke-opacity:1;stroke-dasharray:none">
          <g
             id="g10823-2"
             style="fill:#e20909;stroke:#000000;stroke-width:5;stroke-miterlimit:4;stroke-opacity:1;stroke-dasharray:none">
            <path
               d="m 424.5,379.45868 0,193.80861 -266.68066,0 0,-193.80861"
               id="rect6400-1"
               style="fill:#e20909;fill-opacity:1;fill-rule:evenodd;stroke:#000000;stroke-width:5;stroke-linecap:square;stroke-linejoin:miter;stroke-miterlimit:4;stroke-opacity:1;stroke-dasharray:none;stroke-dashoffset:0" />
            <path
               d="m 258.26031,472.31218 c 0,0 20.77772,-18 33.41576,-18 12.63803,0 35.22458,18 35.22458,18 l 0,100.75 -68.64034,0 z"
               id="rect7281-6"
               style="fill:#e20909;fill-opacity:1;fill-rule:evenodd;stroke:#000000;stroke-width:5;stroke-linecap:square;stroke-linejoin:miter;stroke-miterlimit:4;stroke-opacity:1;stroke-dasharray:none;stroke-dashoffset:0" />
            <path
               d="M 158.90234,377.29939 284.5,275.68314 422.77616,377.29939"
               id="rect8157-85"
               style="fill:#e20909;fill-opacity:1;fill-rule:evenodd;stroke:#000000;stroke-width:5;stroke-linecap:square;stroke-linejoin:miter;stroke-miterlimit:4;stroke-opacity:1;stroke-dasharray:none;stroke-dashoffset:0" />
            <path
               d="m 157.63983,378.49573 264.8969,-0.9007 z"
               id="path9055-7"
               style="fill:#e20909;stroke:#000000;stroke-width:5;stroke-linecap:butt;stroke-linejoin:miter;stroke-miterlimit:4;stroke-opacity:1;stroke-dasharray:none" />
            <g
               transform="translate(22.5,12.08787)"
               id="g10813-6"
               style="fill:#e20909;stroke:#000000;stroke-width:5;stroke-miterlimit:4;stroke-opacity:1;stroke-dasharray:none" />
            <g
               transform="translate(-181.1,27.53003)"
               id="g10817-1"
               style="fill:#e20909;stroke:#000000;stroke-width:5;stroke-miterlimit:4;stroke-opacity:1;stroke-dasharray:none">
              <g
                 id="g1497-8"
                 style="fill:#e20909">
                <g
                   id="g2409-9"
                   style="fill:#e20909" />
              </g>
            </g>
          </g>
        </g>
      </g>
      <path
         d="m 84.4621,98.84522 0.25658,46.65771"
         id="path3102-2"
         style="fill:none;stroke:#000000;stroke-width:0.82986534px;stroke-linecap:butt;stroke-linejoin:miter;stroke-opacity:1" />
    </g>
    <g
       transform="matrix(1.0474129,0,0,1,434.60239,444.79178)"
       id="g3280-2-7"
       style="display:inline">
      <g
         id="g3268-3-9">
        <g
           transform="matrix(0.27642319,0,0,0.4,3.9466105,-82.98461)"
           id="g10897-2-5"
           style="fill:#e20909;stroke:#000000;stroke-width:5;stroke-miterlimit:4;stroke-opacity:1;stroke-dasharray:none">
          <g
             id="g10823-2-4"
             style="fill:#e20909;stroke:#000000;stroke-width:5;stroke-miterlimit:4;stroke-opacity:1;stroke-dasharray:none">
            <path
               d="m 424.5,379.45868 0,193.80861 -266.68066,0 0,-193.80861"
               id="rect6400-1-3"
               style="fill:#e20909;fill-opacity:1;fill-rule:evenodd;stroke:#000000;stroke-width:5;stroke-linecap:square;stroke-linejoin:miter;stroke-miterlimit:4;stroke-opacity:1;stroke-dasharray:none;stroke-dashoffset:0" />
            <path
               d="m 258.26031,472.31218 c 0,0 20.77772,-18 33.41576,-18 12.63803,0 35.22458,18 35.22458,18 l 0,100.75 -68.64034,0 z"
               id="rect7281-6-1"
               style="fill:#e20909;fill-opacity:1;fill-rule:evenodd;stroke:#000000;stroke-width:5;stroke-linecap:square;stroke-linejoin:miter;stroke-miterlimit:4;stroke-opacity:1;stroke-dasharray:none;stroke-dashoffset:0" />
            <path
               d="M 158.90234,377.29939 284.5,275.68314 422.77616,377.29939"
               id="rect8157-85-2"
               style="fill:#e20909;fill-opacity:1;fill-rule:evenodd;stroke:#000000;stroke-width:5;stroke-linecap:square;stroke-linejoin:miter;stroke-miterlimit:4;stroke-opacity:1;stroke-dasharray:none;stroke-dashoffset:0" />
            <path
               d="m 157.63983,378.49573 264.8969,-0.9007 z"
               id="path9055-7-3"
               style="fill:#e20909;stroke:#000000;stroke-width:5;stroke-linecap:butt;stroke-linejoin:miter;stroke-miterlimit:4;stroke-opacity:1;stroke-dasharray:none" />
            <g
               transform="translate(22.5,12.08787)"
               id="g10813-6-3"
               style="fill:#e20909;stroke:#000000;stroke-width:5;stroke-miterlimit:4;stroke-opacity:1;stroke-dasharray:none" />
            <g
               transform="translate(-181.1,27.53003)"
               id="g10817-1-4"
               style="fill:#e20909;stroke:#000000;stroke-width:5;stroke-miterlimit:4;stroke-opacity:1;stroke-dasharray:none">
              <g
                 id="g1497-8-1"
                 style="fill:#e20909">
                <g
                   id="g2409-9-1"
                   style="fill:#e20909" />
              </g>
            </g>
          </g>
        </g>
      </g>
      <path
         d="m 84.4621,98.84522 0.25658,46.65771"
         id="path3102-2-3"
         style="fill:none;stroke:#000000;stroke-width:0.82986534px;stroke-linecap:butt;stroke-linejoin:miter;stroke-opacity:1" />
    </g>
    <path
       d="M 192.06029,126.34056 123.50605,121.23464 93.650794,183.15731 63.795532,121.23464 -4.7587022,126.34056 33.940273,69.523808 -4.7587017,12.707061 l 68.5542387,5.10592 29.855258,-61.922669 29.855265,61.922672 68.55423,-5.105922 -38.69897,56.816752 z"
       transform="matrix(0.75629118,0,0,0.74258602,77.17273,492.37259)"
       id="path3694"
       style="color:#000000;fill:#ffffff;fill-opacity:1;fill-rule:nonzero;stroke:#000000;stroke-width:3.27458906;stroke-linecap:butt;stroke-linejoin:miter;stroke-miterlimit:4;stroke-opacity:1;stroke-dasharray:none;stroke-dashoffset:0;marker:none;visibility:visible;display:inline;overflow:visible" />
    <path
       d="M 192.06029,126.34056 123.50605,121.23464 93.650794,183.15731 63.795532,121.23464 -4.7587022,126.34056 33.940273,69.523808 -4.7587017,12.707061 l 68.5542387,5.10592 29.855258,-61.922669 29.855265,61.922672 68.55423,-5.105922 -38.69897,56.816752 z"
       transform="matrix(0.75629118,0,0,0.74258602,411.17273,85.37259)"
       id="path3694-8"
       style="color:#000000;fill:#ffffff;fill-opacity:1;fill-rule:nonzero;stroke:#000000;stroke-width:3.27458906;stroke-linecap:butt;stroke-linejoin:miter;stroke-miterlimit:4;stroke-opacity:1;stroke-dasharray:none;stroke-dashoffset:0;marker:none;visibility:visible;display:inline;overflow:visible" />
  </g>
  <g
     id="layer3"
     style="display:inline">
    <path
       d="m 1.5,1.5 0,458.8679 C 1.5,626.67854 135.81454,761.5 301.49993,761.5 467.1854,761.5 601.5,626.67854 601.5,460.3679 L 601.5,1.5 1.5,1.5 z"
       id="path2346"
       style="fill:url(#radialGradient3236);fill-opacity:1" />
  </g>
  <g
     id="layer4"
     style="display:inline">
    <path
       d="m 1.5,1.5 0,458.86794 C 1.5,626.67854 135.81454,761.5 301.49993,761.5 467.1854,761.5 601.5,626.67854 601.5,460.36794 L 601.5,1.5 1.5,1.5 z"
       id="path3239"
       style="fill:none;stroke:#000000;stroke-width:3;stroke-miterlimit:4;stroke-opacity:1;stroke-dasharray:none" />
  </g>
</svg>

<?xml version="1.0" encoding="UTF-8"?>
<svg version="1.0" viewBox="0 0 603 763" xmlns="http://www.w3.org/2000/svg" xmlns:cc="http://creativecommons.org/ns#" xmlns:dc="http://purl.org/dc/elements/1.1/" xmlns:rdf="http://www.w3.org/1999/02/22-rdf-syntax-ns#" xmlns:xlink="http://www.w3.org/1999/xlink">
<desc>Coat of Arms of Canton of Freiburg (Fribourg)</desc>
<metadata>
<rdf:RDF>
<cc:Work rdf:about="">
<dc:format>image/svg+xml</dc:format>
<dc:type rdf:resource="http://purl.org/dc/dcmitype/StillImage"/>
<dc:date>07-AUG-2006</dc:date>
<dc:creator>
<cc:Agent>
<dc:title>Jérôme BLUM (wagner51)</dc:title>
</cc:Agent>
</dc:creator>
<cc:license rdf:resource="http://creativecommons.org/licenses/GPL/2.0/"/>
<dc:coverage/>
<dc:description>Gabarit pour le Projet:Blasons de WIkipédia</dc:description>
<dc:subject>
<rdf:Bag>
<rdf:li>blason suisse modèle gabarit projet blasons</rdf:li>
</rdf:Bag>
</dc:subject>
<dc:language>fr</dc:language>
<dc:title/>
</cc:Work>
<cc:License rdf:about="http://creativecommons.org/licenses/GPL/2.0/">
<cc:permits rdf:resource="http://web.resource.org/cc/Reproduction"/>
<cc:permits rdf:resource="http://web.resource.org/cc/Distribution"/>
<cc:requires rdf:resource="http://web.resource.org/cc/Notice"/>
<cc:permits rdf:resource="http://web.resource.org/cc/DerivativeWorks"/>
<cc:requires rdf:resource="http://web.resource.org/cc/ShareAlike"/>
<cc:requires rdf:resource="http://web.resource.org/cc/SourceCode"/>
</cc:License>
</rdf:RDF>
</metadata>
<defs>
<radialGradient id="a" cx="858.04" cy="579.93" r="300" gradientTransform="matrix(1.215 0 0 1.2667 -839.19 -490.49)" gradientUnits="userSpaceOnUse">
<stop stop-color="#fff" stop-opacity=".31373" offset="0"/>
<stop stop-color="#fff" stop-opacity=".25098" offset=".19"/>
<stop stop-color="#6b6b6b" stop-opacity=".12549" offset=".6"/>
<stop stop-opacity=".12549" offset="1"/>
</radialGradient>
</defs>
<g>
<path d="m1.5 1.5v458.87c0 166.31 134.31 301.13 300 301.13 165.69 0 300-134.82 300-301.13v-458.87h-600z" fill="#2b5df2"/>
<g transform="matrix(1.0919 0 0 1.1377 0 -1)">
<path d="m1.5 100.78 481.94 479.64c42.267-51.709 52.485-79.698 62.121-126.39l-451.84-451.84h-92.219z" fill="#fff" fill-rule="evenodd" stroke="#000" stroke-width="3"/>
<rect y="3.3751e-14" width="600" height="660" fill="none"/>
</g>
<g transform="matrix(1.0474 0 0 1 -9.4557 -12.403)">
<g transform="matrix(.27642 0 0 .4 3.9466 -82.985)" fill="#e20909" stroke="#000" stroke-width="5">
<g fill="#e20909" stroke="#000" stroke-width="5">
<path d="m424.5 379.46v193.81h-266.68v-193.81" fill-rule="evenodd" stroke-linecap="square"/>
<path d="m258.26 472.31s20.778-18 33.416-18c12.638 0 35.225 18 35.225 18v100.75h-68.64z" fill-rule="evenodd" stroke-linecap="square"/>
<path d="m158.9 377.3 125.6-101.62 138.28 101.62" fill-rule="evenodd" stroke-linecap="square"/>
<path d="m157.64 378.5 264.9-0.9007z"/>
<g transform="translate(-181.1 27.53)">
<g fill="#e20909"></g>
</g>
</g>
</g>
<path d="m84.462 98.845 0.25658 46.658" fill="none" stroke="#000" stroke-width=".82987px"/>
</g>
<g transform="matrix(1.0474 0 0 1 212.36 210.79)">
<g transform="matrix(.27642 0 0 .4 3.9466 -82.985)" fill="#e20909" stroke="#000" stroke-width="5">
<g fill="#e20909" stroke="#000" stroke-width="5">
<path d="m424.5 379.46v193.81h-266.68v-193.81" fill-rule="evenodd" stroke-linecap="square"/>
<path d="m258.26 472.31s20.778-18 33.416-18c12.638 0 35.225 18 35.225 18v100.75h-68.64z" fill-rule="evenodd" stroke-linecap="square"/>
<path d="m158.9 377.3 125.6-101.62 138.28 101.62" fill-rule="evenodd" stroke-linecap="square"/>
<path d="m157.64 378.5 264.9-0.9007z"/>
<g transform="translate(-181.1 27.53)">
<g fill="#e20909"></g>
</g>
</g>
</g>
<path d="m84.462 98.845 0.25658 46.658" fill="none" stroke="#000" stroke-width=".82987px"/>
</g>
<g transform="matrix(1.0474 0 0 1 434.6 444.79)">
<g transform="matrix(.27642 0 0 .4 3.9466 -82.985)" fill="#e20909" stroke="#000" stroke-width="5">
<g fill="#e20909" stroke="#000" stroke-width="5">
<path d="m424.5 379.46v193.81h-266.68v-193.81" fill-rule="evenodd" stroke-linecap="square"/>
<path d="m258.26 472.31s20.778-18 33.416-18c12.638 0 35.225 18 35.225 18v100.75h-68.64z" fill-rule="evenodd" stroke-linecap="square"/>
<path d="m158.9 377.3 125.6-101.62 138.28 101.62" fill-rule="evenodd" stroke-linecap="square"/>
<path d="m157.64 378.5 264.9-0.9007z"/>
<g transform="translate(-181.1 27.53)">
<g fill="#e20909"></g>
</g>
</g>
</g>
<path d="m84.462 98.845 0.25658 46.658" fill="none" stroke="#000" stroke-width=".82987px"/>
</g>
<path transform="matrix(.75629 0 0 .74259 77.173 492.37)" d="m192.06 126.34-68.554-5.1059-29.855 61.923-29.855-61.923-68.554 5.1059 38.699-56.817-38.699-56.817 68.554 5.1059 29.855-61.923 29.855 61.923 68.554-5.1059-38.699 56.817z" color="#000000" fill="#fff" stroke="#000" stroke-width="3.2746"/>
<path transform="matrix(.75629 0 0 .74259 411.17 85.373)" d="m192.06 126.34-68.554-5.1059-29.855 61.923-29.855-61.923-68.554 5.1059 38.699-56.817-38.699-56.817 68.554 5.1059 29.855-61.923 29.855 61.923 68.554-5.1059-38.699 56.817z" color="#000000" fill="#fff" stroke="#000" stroke-width="3.2746"/>
<path d="m1.5 1.5v458.87c0 166.31 134.31 301.13 300 301.13 165.69 0 300-134.82 300-301.13v-458.87h-600z" fill="url(#a)"/>
<path d="m1.5 1.5v458.87c0 166.31 134.31 301.13 300 301.13 165.69 0 300-134.82 300-301.13v-458.87h-600z" fill="none" stroke="#000" stroke-width="3"/>
</g>
</svg>
